!!!OTL: 332. Kaiserlied beim Ruedesheimer.
!!!ARE: Europa, Mitteleuropa, Deutschland
!!!SCT: B0332
!!!TXL: @@DE
!!!YEM: Copyright 1995, estate of Helmut Schaffrath.
**kern	**text
*ICvox	*
*Ivox	*
*clefG2	*
*M2/4	*
*k[b-e-a-]	*
*E-:	*
!LO:TX:a:t=Mäßig.	!
{16e-L	Dies,
16fJ	.
=1	=1
8g	Brü-
16fL	-der
16gJ	.
8a-	iſt
16gL	der
16a-J	.
=2	=2
8b-	Kö-
4b-}	-nig
{16a-L	von
16b-J	.
=3	=3
8cc	un-
16b-L	-ſerm
16ccJ	.
8dd	deut-
16ccL	-ſchen
16ddJ	.
=4	=4
4ee-	Wein,
8r}	.
{16ddL	doch
16ccJ	.
=5	=5
8b-	ſagt:
8b-	wer
8b-	ſoll
16ccL	der
16b-J	.
=6	=6
8a-	Kö-
4a-}	-nig
{16gL	von
16a-J	.
=7	=7
8g	un-
16a-L	-ſerm
16gJ	.
8f	Lie-
16gL	-de
16fJ	.
=8	=8
4e-	ſein?
8r}	.
==	==
!!!AGN: Trink -, Kaiser - Lied
!!!GTL: Wein- und Trinklieder
!!!ONB: ESAC (Essen Associative Code) Database: BOEHME
!!!AMT: simple duple
!!!AIN: vox
!!!EED: Helmut Schaffrath
!!!EEV: 1.0
!!Weiſe: "Wär ich ein wilder Falke" von Fr. Reichardt.
!!@@COMMENT:"*Die Rebe von Orleans.
!!Lied von Aloys Schreiber (um 1820). Tert nach dem "Liederb. des deutſchen Volkes". Leipʒig 1843."
!!@@END:
!!!Text: A. Schreiber
!!!URL-scan: https://archive.org/details/BoehmeVtLieder1895/page/n277/mode/2up
!!!ENC: Anna Maria Matuszewska
!!!EEV: 2024/04/07
*-	*-
